X:1
T:Lord Randal
M:3/4
L:1/4
K:C
 G| G2 B/2d/2| d- B A| A G G| G2B/2-d/2| d d d| g2 e| e d ^c| d2 d/2d/2|\
 d2 d/2d/2| g g2| g g2| c c c| e3-| e z c| B d e| d B c/2c/2| A G B|\
 G2||
